X: 10852
T: LOWLAND WILLIE
Q: "Lively."
%R: jig
B: W. Hamilton "Universal Tune-Book" Vol. 1 Glasgow 1844 p.85 #2
S: http://imslp.org/wiki/Hamilton's_Universal_Tune-Book_(Various)
Z: 2016 John Chambers <jc:trillian.mit.edu>
M: 6/8
L: 1/8
K: G
% - - - - - - - - - - - - - - - - - - - - - - - - -
D |\
G2B B>cA | G2d d>ec | B2g dBG | F3 A2D |\
G2B B>cA | G2d d>ef | g2B ABc | B3 G2 |]
d |\
d2B e2c | d2B gfe | d2B BAG | FAz z2d |\
d2B e2c | d2B gfe | e2B BAG | FAz z2 |]
c |\
B2G GFG | A2B c3 | BdG GFG | A2B Hc2d |\
BAB G2e | d2B Hg2e | dBG FED | DGz z2 |]
% - - - - - - - - - - - - - - - - - - - - - - - - -

%%sep 1 1 500
%%sep 1 1 500

